X: 428
%
T: Miss Stewart Grantully
C:Neil Gow
O:Scotland
B:Keith Norman MacDonald : "The Skye collection of the best reels & strathspeys extant" : 1887
Z:Ralph Palmer
R:Strathspey
M:C
L:1/8
K:A
e | AA{/d}c>A (c/2d/2e) {/d}c2 | B<=G B>c (d/2c/2)B/2A/2 G>B | AA{/d}c>A (c/2d/2e) {/d}c2 | A<ae>f {/d}c>AA :|
g | {/g}a>e{/g}a>e (a/2g/2)f/2e/2 {/g}a>e | =g>dg>d B>=GG>^g | {/g}a>e{/g}a>e {/g}a/2g/2f/2e/2 {/g}a>e | Tf>e{/g}a>e {/d}c>AA>g |
{/g}a>e{/g}a>e (a/2g/2)f/2e/2 {/g}ae | {/f}=g>dg>d B>=GG>B | AA{/d}c>A (c/2d/2e) Tc2 | (A<a)e<f {/d}c<AA |]


